X: 11396
T: East Boldon
R: jig
M: 6/8
K: Dmajor
|:A|FAd fed|dcB A2G|FAd dcd|e2E E2G|
FAd fed|dcB A2G|FAd cec|dDD D2:|
|:f|e2e efg|f2f fed|Bef gfe|dcB A2f|
e2e efg|f2f fed|Bef gfe|dce d2:|

